map_marker_monochrome/openmoji_bubbles.svg

<svg xmlns="http://www.w3.org/2000/svg" width="24" height="24" viewBox="0 0 24 24"> <g transform="scale(0.48)">
  
  <g
     id="line-supplement"
     transform="translate(-11,-11)">
    <path
       fill="none"
       stroke="#000"
       stroke-linecap="round"
       stroke-linejoin="round"
       stroke-width="4"
       d="m 40,47.091 c 0.243,-0.4392 0.5461,-0.8404 0.8984,-1.1926 C 41.2506,45.5461 41.6518,45.243 42.091,45"
       id="path2" />
    <path
       fill="none"
       stroke="#000"
       stroke-linecap="round"
       stroke-linejoin="round"
       stroke-width="3"
       d="m 48.5,25.5 c 0.1162,-0.21 0.2612,-0.4019 0.4296,-0.5704 C 49.0981,24.7612 49.29,24.6162 49.5,24.5"
       id="path4" />
    <path
       fill="none"
       stroke="#000"
       stroke-linecap="round"
       stroke-linejoin="round"
       stroke-width="4"
       d="m 18,21.3456 c 0.3888,-0.7027 0.8738,-1.3447 1.4374,-1.9082 0.5635,-0.5636 1.2055,-1.0486 1.9082,-1.4374"
       id="path6" />
  </g>
  <g
     id="line"
     transform="translate(-11,-11)">
    <path
       fill="none"
       stroke="#000"
       stroke-linecap="round"
       stroke-linejoin="round"
       stroke-width="2"
       d="M 25.5,39 C 32.9558,39 39,32.9558 39,25.5 39,18.0442 32.9558,12 25.5,12 18.0442,12 12,18.0442 12,25.5 12,32.9558 18.0442,39 25.5,39 Z"
       id="path9" />
    <path
       fill="none"
       stroke="#000"
       stroke-linecap="round"
       stroke-linejoin="round"
       stroke-width="2"
       d="m 52,36 c 4.4183,0 8,-3.5817 8,-8 0,-4.4183 -3.5817,-8 -8,-8 -4.4183,0 -8,3.5817 -8,8 0,4.4183 3.5817,8 8,8 z"
       id="path11" />
    <path
       fill="none"
       stroke="#000"
       stroke-linecap="round"
       stroke-linejoin="round"
       stroke-width="2"
       d="m 45,60 c 5.5228,0 10,-4.4772 10,-10 0,-5.5228 -4.4772,-10 -10,-10 -5.5228,0 -10,4.4772 -10,10 0,5.5228 4.4772,10 10,10 z"
       id="path13" />
    <path
       fill="none"
       stroke="#000"
       stroke-linecap="round"
       stroke-linejoin="round"
       stroke-width="2"
       d="m 45,60 c 5.5228,0 10,-4.4772 10,-10 0,-5.5228 -4.4772,-10 -10,-10 -5.5228,0 -10,4.4772 -10,10 0,5.5228 4.4772,10 10,10 z"
       id="path15" />
  </g>
</g></svg>

<svg xmlns="http://www.w3.org/2000/svg" width="24" height="24" viewBox="0 0 24 24"> <g transform="scale(0.333333333)">  <g id="line-supplement">
    <path fill="none" stroke="#000" stroke-linecap="round" stroke-linejoin="round" stroke-width="4" d="M40 47.091C40.243 46.6518 40.5461 46.2506 40.8984 45.8984C41.2506 45.5461 41.6518 45.243 42.091 45"/>
    <path fill="none" stroke="#000" stroke-linecap="round" stroke-linejoin="round" stroke-width="3" d="M48.5 25.5C48.6162 25.29 48.7612 25.0981 48.9296 24.9296C49.0981 24.7612 49.29 24.6162 49.5 24.5"/>
    <path fill="none" stroke="#000" stroke-linecap="round" stroke-linejoin="round" stroke-width="4" d="M18 21.3456C18.3888 20.6429 18.8738 20.0009 19.4374 19.4374C20.0009 18.8738 20.6429 18.3888 21.3456 18"/>
  </g>
  <g id="line">
    <path fill="none" stroke="#000" stroke-linecap="round" stroke-linejoin="round" stroke-width="2" d="M25.5 39C32.9558 39 39 32.9558 39 25.5C39 18.0442 32.9558 12 25.5 12C18.0442 12 12 18.0442 12 25.5C12 32.9558 18.0442 39 25.5 39Z"/>
    <path fill="none" stroke="#000" stroke-linecap="round" stroke-linejoin="round" stroke-width="2" d="M52 36C56.4183 36 60 32.4183 60 28C60 23.5817 56.4183 20 52 20C47.5817 20 44 23.5817 44 28C44 32.4183 47.5817 36 52 36Z"/>
    <path fill="none" stroke="#000" stroke-linecap="round" stroke-linejoin="round" stroke-width="2" d="M45 60C50.5228 60 55 55.5228 55 50C55 44.4772 50.5228 40 45 40C39.4772 40 35 44.4772 35 50C35 55.5228 39.4772 60 45 60Z"/>
    <path fill="none" stroke="#000" stroke-linecap="round" stroke-linejoin="round" stroke-width="2" d="M45 60C50.5228 60 55 55.5228 55 50C55 44.4772 50.5228 40 45 40C39.4772 40 35 44.4772 35 50C35 55.5228 39.4772 60 45 60Z"/>
  </g></g></svg>
